resources/images/jug.svg

<svg xmlns="http://www.w3.org/2000/svg" version="1.1" xmlns:xlink="http://www.w3.org/1999/xlink" preserveAspectRatio="none" x="0px" y="0px" width="285px" height="427px" viewBox="0 0 285 427">
<defs>
<g id="Layer0_0_FILL">
<path fill="#4B8200" stroke="none" d="
M 163.5 237.9
Q 163.8 237.9 164.15 237.9 164 237.75 163.9 237.6
L 163.5 237.9
M 164.15 237.9
L 164.2 237.9
Q 163.85 237.45 163.5 237.05 163.65 237.25 163.9 237.6 164 237.75 164.15 237.9 Z"/>

<path fill="#416E00" stroke="none" d="
M 92.3 132.7
Q 91.6 134.9 90.95 136.95 90.9 137 90.9 137.1 87.8 147.2 86.55 154.35 86.55 154.4 86.55 154.55 84.5 166.5 86.15 176.6 86.15 176.65 86.2 176.7 86.25 177 86.3 177.3 88.55 189.55 95.6 201 103.8 214.5 117.95 225.45 125.75 229.95 133.95 232.85 148.2 237.85 163.5 237.9
L 163.9 237.6
Q 163.65 237.25 163.5 237.05 153.45 235.4 139.35 225.95 136.55 224.1 130.55 218.5 124.45 212.85 115.05 200.4 105.65 187.95 98.7 162 91.8 136.1 94.9 124.7 93.7 128.25 92.3 132.7 Z"/>

<path fill="#689311" stroke="none" d="
M 103.2 92.35
L 103.2 92.55
Q 103.3 92.1 103.25 92 103.2091796875 92 103.2 92.05
L 103.2 92.1
Q 103.2 92.2 103.2 92.35
M 103.5 83.85
Q 103.6 78 103.2 75.2 101.75 64.3 96.55 54.05 78.95 41.95 68.1 41.75 57.25 41.55 49.05 48.2 40.8 54.7 38.05 69.95 35.2 85.2 53.5 113.55 71.65 141.6 86 176.7 86.15 177 86.3 177.3 86.25 177 86.2 176.7 86.15 176.65 86.15 176.6 84.5 166.5 86.55 154.55 86.55 154.4 86.55 154.35 87.8 147.2 90.9 137.1 90.9 137 90.95 136.95 67.8 112.4 59.5 94.65 50.95 76.55 52.9 69.1 54.9 61.7 62.1 58 69.4 54.35 84.95 63.75 98.35 71.85 103.4 88.3 103.45 86.05 103.5 84.05 103.5 83.95 103.5 83.85
M 221.75 61.35
Q 228.5 53.8 242.95 49.6 232.9 47.3 225.1 40.15 215.1 45.9 195.85 48.8 178.25 51.5 156.05 51.35 144.5 51.2 133.95 50.3 124.5 49.6 115.85 48.25 106.7 46.75 98.9 43.1 92.1 39.95 86.85 35.45 89.3 39.55 92.3 45.45 92.5 45.8 92.7 46.2 94.25 49.25 96.55 54.05 101.75 64.3 103.2 75.2 103.6 78 103.5 83.85 103.5 83.95 103.5 84.05 103.45 86.05 103.4 88.3 103.30078125 90.1341796875 103.2 92.05 103.2091796875 92 103.25 92 103.3 92.1 103.2 92.55 102.15 100.8 99.35 110.65 98.9 112.2 95.6 122.55
L 95.5 122.85
Q 95.3 123.35 95.2 123.9 95.05 124.3 94.9 124.7 91.8 136.1 98.7 162 105.65 187.95 115.05 200.4 124.45 212.85 130.55 218.5 136.55 224.1 139.35 225.95 153.45 235.4 163.5 237.05 163.85 237.45 164.2 237.9 170.4 237.85 176.75 237.05 192.65 234.9 209.5 227.65 211.8 225.9 213.85 224 237.75 202.7 238.95 174.65 239.5 162.6 235.85 147.95 233.4 137.9 227.55 122.3 220.7 103.6 219.15 98.65 215.3 86.25 215.55 78 215.8 68.05 221.75 61.35 Z"/>

<path fill="#396400" stroke="none" d="
M 195.85 48.8
Q 215.1 45.9 225.1 40.15 232.9 47.3 242.95 49.6 237.35 37.7 224.9 30.6 215.1 25.6 195.85 22.65 178.25 19.95 156.05 20.15 145.4 20.25 134.65 21.2 134.3 21.25 133.95 21.3 124 22.2 116.55 23.65 107.15 25.4 100 28.4 93.55 30.95 86.85 35.45 92.1 39.95 98.9 43.1 106.7 46.75 115.85 48.25 124.5 49.6 133.95 50.3 144.5 51.2 156.05 51.35 178.25 51.5 195.85 48.8 Z"/>
</g>

<path id="Layer0_0_1_STROKES" stroke="#1F3300" stroke-width="2" stroke-linejoin="round" stroke-linecap="round" fill="none" d="
M 280.61633148193357 106.892333984375
Q 261.1722442626953 112.54390258789061 252.08936614990233 122.7032699584961 244.08297729492188 131.71886749267577 243.74657440185547 145.10770263671876 243.41017150878906 156.20899810791016 248.59077606201174 172.89458160400392 250.67647399902341 179.55535888671875 259.89391326904297 204.71829528808593 267.7657409667969 225.7098358154297 271.0624893188476 239.2332321166992 275.9739715576172 258.9464416503906 275.23388519287107 275.1610610961914 273.61915130615233 312.90546569824215 241.45903472900386 341.5669921875 238.70053100585938 344.1236541748047 235.60562438964843 346.47847442626954 212.93206939697268 356.2341583251953 191.5368453979492 359.1272232055664 182.99221191406252 360.20371246337885 174.6494201660156 360.2709930419922
L 174.58213958740237 360.2709930419922
Q 174.11117553710938 360.2709930419922 173.70749206542968 360.2709930419922 153.1196350097656 360.20371246337885 133.94467010498045 353.4756546020507 122.91065521240235 349.57338104248043 112.41488494873049 343.5181289672851 93.37448120117186 328.78368225097654 82.34046630859375 310.6179260253906 72.8539047241211 295.2106735229492 69.82627868652344 278.7269317626953 69.6244369506836 278.3232482910156 69.42259521484375 277.9195648193359 50.11306915283204 230.6885986328125 25.69021911621094 192.9441940307617 1.0655273437500057 154.79610595703124 4.900520324707031 134.27552947998046 8.6009521484375 113.75495300292968 19.702247619628906 105.00847778320312 30.736262512207034 96.06016082763671 45.33614807128906 96.32928314208985 59.9360336303711 96.59840545654296 83.61879730224608 112.88030548095702 80.52389068603516 106.42136993408204 78.43819274902344 102.31725463867187 78.16907043457032 101.77901000976561 77.89994812011719 101.30804595947265 73.86311340332031 93.36893768310546 70.56636505126953 87.8519302368164 79.58196258544922 81.79667816162109 88.2611572265625 78.36536865234375 97.88227996826173 74.32853393554687 110.53102874755858 71.97371368408203 120.5558349609375 70.02257690429687 133.94467010498045 68.81152648925782 134.41563415527344 68.74424591064454 134.88659820556643 68.67696533203124 149.3519226074219 67.39863433837891 163.68268585205078 67.26407318115234 193.55526275634764 66.99495086669921 217.2380264282226 70.6281021118164 243.1410491943359 74.59765625 256.3280426025391 81.32571411132812 273.08090667724605 90.87955627441406 280.61633148193357 106.892333984375 Z
M 280.61633148193357 106.892333984375
Q 267.0929351806641 103.79742736816405 256.59716491699214 94.17630462646484 243.1410491943359 101.91357116699218 217.2380264282226 105.81584472656249 193.55526275634764 109.4489959716797 163.68268585205078 109.24715423583984 148.1408721923828 109.0453125 133.94467010498045 107.83426208496093 121.22864074707032 106.892333984375 109.58910064697265 105.07575836181641 97.27675476074221 103.05734100341797 86.78098449707032 98.14585876464844 77.63082580566406 93.90718231201171 70.56636505126953 87.8519302368164
M 92.97079772949219 152.97953033447266
Q 93.10535888671875 145.10770263671876 92.56711425781252 141.339990234375 90.61597747802735 126.67282409667968 83.61879730224608 112.88030548095702
M 82.34046630859375 205.05469818115233
Q 86.78098449707032 191.12761840820315 87.38650970458984 189.04192047119142 91.1542221069336 175.787646484375 92.56711425781252 164.68635101318358
L 92.56711425781252 164.41722869873047
Q 92.56711425781252 164.21538696289062 92.56711425781252 164.08082580566406
L 92.56711425781252 164.04718551635742
Q 92.7027266740799 161.43559524416924 92.83623657226563 158.96750183105468 86.04089813232422 136.83219146728516 68.00970306396485 125.9327377319336 47.08544311523438 113.28398895263672 37.262478637695324 118.19547119140626 27.574075317382807 123.17423400878906 24.882852172851557 133.1317596435547 22.2589096069336 143.15656585693358 33.76388854980469 167.51213531494142 44.932464599609375 191.39674072265626 76.0833724975586 224.43150482177734 76.95802001953125 221.67300109863282 77.89994812011719 218.71265563964843 79.78380432128907 212.7246841430664 81.39853820800782 207.94776306152346 81.60037994384766 207.40951843261718 81.80222167968752 206.87127380371095
M 92.56711425781252 164.68635101318358
Q 92.70167541503905 164.08082580566406 92.63439483642578 163.9462646484375 92.57946655154227 163.9462646484375 92.56711425781252 164.04718551635742
M 92.83623657226563 158.96750183105468
Q 92.90351715087893 155.93987579345702 92.97079772949219 153.24865264892577
M 76.0833724975586 224.43150482177734
Q 76.01609191894532 224.49878540039063 76.01609191894532 224.6333465576172 71.84469604492188 238.2240234375 70.16268157958984 247.84514617919922 70.16268157958984 247.9124267578125 70.16268157958984 248.11426849365236 67.40417785644532 264.19432678222654 69.6244369506836 277.7850036621094 69.6244369506836 277.85228424072267 69.69171752929688 277.9195648193359 69.75899810791016 278.3232482910156 69.82627868652344 278.7269317626953"/>

<path id="Layer0_0_2_STROKES" stroke="#1F3300" stroke-width="1" stroke-linejoin="round" stroke-linecap="round" fill="none" d="
M 92.97079772949219 153.24865264892577
Q 92.97079772949219 153.1140914916992 92.97079772949219 152.97953033447266
M 81.80222167968752 206.87127380371095
Q 81.93678283691405 206.13118743896484 82.20590515136719 205.45838165283203
L 82.34046630859375 205.05469818115233
M 174.6494201660156 360.2709930419922
Q 174.17845611572267 359.6654678344726 173.70749206542968 359.1272232055664 173.90933380126955 359.3963455200195 174.24573669433596 359.86730957031244 174.3802978515625 360.0691513061523 174.58213958740237 360.2709930419922"/>
</defs>

<g transform="matrix( 1.345611572265625, 0, 0, 1.345611572265625, -46.3,40.15) ">
<use xlink:href="#Layer0_0_FILL"/>

<use xlink:href="#Layer0_0_1_STROKES" transform="matrix( 0.7431488037109375, 0, 0, 0.7431488037109375, 34.4,-29.8) "/>

<use xlink:href="#Layer0_0_2_STROKES" transform="matrix( 0.7431488037109375, 0, 0, 0.7431488037109375, 34.4,-29.8) "/>
</g>
</svg>

<svg xmlns="http://www.w3.org/2000/svg" xmlns:xlink="http://www.w3.org/1999/xlink" preserveAspectRatio="none" width="285" height="427" viewBox="0 0 285 427"><defs><g id="a"><path fill="#4B8200" d="M163.5 237.9h.65q-.15-.15-.25-.3l-.4.3m.65 0h.05q-.35-.45-.7-.85.15.2.4.55.1.15.25.3z"/><path fill="#416E00" d="M92.3 132.7q-.7 2.2-1.35 4.25-.05.05-.05.15-3.1 10.1-4.35 17.25v.2q-2.05 11.95-.4 22.05 0 .05.05.1l.1.6q2.25 12.25 9.3 23.7 8.2 13.5 22.35 24.45 7.8 4.5 16 7.4 14.25 5 29.55 5.05l.4-.3q-.25-.35-.4-.55-10.05-1.65-24.15-11.1-2.8-1.85-8.8-7.45-6.1-5.65-15.5-18.1-9.4-12.45-16.35-38.4-6.9-25.9-3.8-37.3-1.2 3.55-2.6 8z"/><path fill="#689311" d="M103.2 92.35v.2q.1-.45.05-.55-.04 0-.05.05v.3m.3-8.5q.1-5.85-.3-8.65-1.45-10.9-6.65-21.15-17.6-12.1-28.45-12.3-10.85-.2-19.05 6.45-8.25 6.5-11 21.75-2.85 15.25 15.45 43.6Q71.65 141.6 86 176.7l.3.6-.1-.6q-.05-.05-.05-.1-1.65-10.1.4-22.05v-.2q1.25-7.15 4.35-17.25 0-.1.05-.15Q67.8 112.4 59.5 94.65q-8.55-18.1-6.6-25.55 2-7.4 9.2-11.1 7.3-3.65 22.85 5.75 13.4 8.1 18.45 24.55.05-2.25.1-4.25v-.2m118.25-22.5q6.75-7.55 21.2-11.75-10.05-2.3-17.85-9.45-10 5.75-29.25 8.65-17.6 2.7-39.8 2.55-11.55-.15-22.1-1.05-9.45-.7-18.1-2.05-9.15-1.5-16.95-5.15-6.8-3.15-12.05-7.65 2.45 4.1 5.45 10 .2.35.4.75 1.55 3.05 3.85 7.85 5.2 10.25 6.65 21.15.4 2.8.3 8.65v.2q-.05 2-.1 4.25-.1 1.834-.2 3.75.01-.05.05-.05.05.1-.05.55-1.05 8.25-3.85 18.1-.45 1.55-3.75 11.9l-.1.3q-.2.5-.3 1.05l-.3.8q-3.1 11.4 3.8 37.3 6.95 25.95 16.35 38.4 9.4 12.45 15.5 18.1 6 5.6 8.8 7.45 14.1 9.45 24.15 11.1.35.4.7.85 6.2-.05 12.55-.85 15.9-2.15 32.75-9.4 2.3-1.75 4.35-3.65 23.9-21.3 25.1-49.35.55-12.05-3.1-26.7-2.45-10.05-8.3-25.65-6.85-18.7-8.4-23.65-3.85-12.4-3.6-20.65.25-9.95 6.2-16.65z"/><path fill="#396400" d="M195.85 48.8q19.25-2.9 29.25-8.65 7.8 7.15 17.85 9.45-5.6-11.9-18.05-19-9.8-5-29.05-7.95-17.6-2.7-39.8-2.5-10.65.1-21.4 1.05l-.7.1q-9.95.9-17.4 2.35-9.4 1.75-16.55 4.75-6.45 2.55-13.15 7.05 5.25 4.5 12.05 7.65 7.8 3.65 16.95 5.15 8.65 1.35 18.1 2.05 10.55.9 22.1 1.05 22.2.15 39.8-2.55z"/></g><path id="b" stroke="#1F3300" stroke-width="2" stroke-linejoin="round" stroke-linecap="round" fill="none" d="M280.616 106.892q-19.444 5.652-28.527 15.811-8.006 9.016-8.342 22.405-.337 11.101 4.844 27.787 2.085 6.66 11.303 31.823 7.872 20.992 11.168 34.515 4.912 19.713 4.172 35.928-1.615 37.744-33.775 66.406-2.758 2.557-5.853 4.911-22.674 9.756-44.07 12.65-8.544 1.076-16.887 1.143h-.942q-20.587-.067-39.762-6.795-11.034-3.903-21.53-9.958-19.04-14.734-30.075-32.9-9.486-15.407-12.514-31.891l-.403-.807q-19.31-47.231-43.733-84.976Q1.066 154.796 4.9 134.276q3.701-20.521 14.802-29.268 11.034-8.948 25.634-8.679 14.6.27 38.283 16.551-3.095-6.459-5.18-10.563-.27-.538-.54-1.009-4.036-7.94-7.333-13.456 9.016-6.055 17.695-9.487 9.621-4.036 22.27-6.391 10.025-1.951 23.414-3.162l.942-.135q14.465-1.278 28.796-1.413 29.872-.269 53.555 3.364 25.903 3.97 39.09 10.698 16.753 9.554 24.288 25.566zm0 0q-13.523-3.095-24.019-12.716-13.456 7.738-39.359 11.64-23.683 3.633-53.555 3.431-15.542-.202-29.738-1.413-12.716-.942-24.356-2.758-12.312-2.019-22.808-6.93-9.15-4.239-16.215-10.294m22.405 65.128q.134-7.872-.404-11.64-1.951-14.667-8.948-28.46m-1.279 92.175q4.441-13.927 5.047-16.013 3.767-13.254 5.18-24.356v-.269-.37q.136-2.611.27-5.08-6.796-22.135-24.827-33.034-20.925-12.649-30.748-7.738-9.688 4.98-12.38 14.937-2.623 10.025 8.882 34.38 11.168 23.885 42.32 56.92.874-2.759 1.816-5.72 1.884-5.987 3.499-10.764l.403-1.077m10.765-42.185q.135-.605.067-.74-.055 0-.067.101m.27-5.08q.067-3.027.134-5.718m-16.888 71.183q-.067.067-.067.201-4.171 13.591-5.853 23.212v.27q-2.759 16.08-.539 29.67 0 .067.068.135l.134.807"/><path id="c" stroke="#1F3300" stroke-width="1" stroke-linejoin="round" stroke-linecap="round" fill="none" d="M92.97 153.249v-.27m-11.168 53.892q.135-.74.404-1.413l.134-.403m92.31 155.216q-.472-.606-.943-1.144.202.27.539.74.134.202.336.404"/></defs><g transform="translate(-46.3 40.15) scale(1.34561)"><use xlink:href="#a"/><use xlink:href="#b" transform="matrix(.74315 0 0 .74315 34.4 -29.8)"/><use xlink:href="#c" transform="matrix(.74315 0 0 .74315 34.4 -29.8)"/></g></svg>
